X: 4
T: Scarce O' Tatties
R: jig
M: 6/8
L: 1/8
K: Amix
|: ^G |Ace efg | edB d2 G | Ace gfe | dBG A2 e |
a^ga =gag | f/g/af ecA | Ac/d/e gfe | dBG A2 :|
|: a |aeg a2 f | g2 f ecA | aeb a2 f | g2 f e2 c |
eAe Ace | d2 f f2 e | Ace g2 e | dB/A/G A2 :|


Tune 95	Setting 23666

